X: 37410
T: Sleepy, The
R: reel
M: 4/4
K: Adorian
|:AEEG ~c3d|eA A/A/A AGEG|cdeg a2 bg|efge dBcB|
AEEG cBcd|eA A/A/A AGEG|eA (3cBA agfd|1 cABG ABcB:|2 cABG ABcd||
eaaf (3gag fg|ebbg a2 ga|bage dBGB|cABG ABcd|
eaaf (3gag fg|ebbg a2 ag|eA (3cBA agfd|cABG ABcd|
eaaf (3gag fg|ebbg a2 ga|bage dBGB|cABG ABcB|
AEEG cBcd|eA A/A/A AGEG|eA (3cBA agfd|cABG ABcB||

